fill/svg/keypad.svg

<svg xmlns="http://www.w3.org/2000/svg" viewBox="0 0 24 24"><g data-name="Layer 2"><g data-name="keypad"><path d="M5 2a3 3 0 1 0 3 3 3 3 0 0 0-3-3z"/><path d="M12 2a3 3 0 1 0 3 3 3 3 0 0 0-3-3z"/><path d="M19 8a3 3 0 1 0-3-3 3 3 0 0 0 3 3z"/><path d="M5 9a3 3 0 1 0 3 3 3 3 0 0 0-3-3z"/><path d="M12 9a3 3 0 1 0 3 3 3 3 0 0 0-3-3z"/><path d="M19 9a3 3 0 1 0 3 3 3 3 0 0 0-3-3z"/><path d="M5 16a3 3 0 1 0 3 3 3 3 0 0 0-3-3z"/><path d="M12 16a3 3 0 1 0 3 3 3 3 0 0 0-3-3z"/><path d="M19 16a3 3 0 1 0 3 3 3 3 0 0 0-3-3z"/></g></g></svg>

<svg xmlns="http://www.w3.org/2000/svg" viewBox="0 0 24 24"><defs><style>.cls-1{fill:#fff;opacity:0;}.cls-2{fill:#231f20;}</style></defs><title>keypad</title><g id="Layer_2" data-name="Layer 2"><g id="keypad"><g id="keypad-2" data-name="keypad"><rect class="cls-1" width="24" height="24"/><path class="cls-2" d="M5,2A3,3,0,1,0,8,5,3,3,0,0,0,5,2Z"/><path class="cls-2" d="M12,2a3,3,0,1,0,3,3A3,3,0,0,0,12,2Z"/><path class="cls-2" d="M19,8a3,3,0,1,0-3-3A3,3,0,0,0,19,8Z"/><path class="cls-2" d="M5,9a3,3,0,1,0,3,3A3,3,0,0,0,5,9Z"/><path class="cls-2" d="M12,9a3,3,0,1,0,3,3A3,3,0,0,0,12,9Z"/><path class="cls-2" d="M19,9a3,3,0,1,0,3,3A3,3,0,0,0,19,9Z"/><path class="cls-2" d="M5,16a3,3,0,1,0,3,3A3,3,0,0,0,5,16Z"/><path class="cls-2" d="M12,16a3,3,0,1,0,3,3A3,3,0,0,0,12,16Z"/><path class="cls-2" d="M19,16a3,3,0,1,0,3,3A3,3,0,0,0,19,16Z"/></g></g></g></svg>
